!!!!SEGMENT: pl-wtm--r-65-n_noskowski-zygmunt--kantata.krn
!!!cenid: 18xx:2110
!!!COM: Noskowski, Zygmunt
!!!COM-rismid: pe106604
!!!CDT: 1846/05/02-1909/07/23
!!!CNT: Polish
!!!OTL: Kantata
!!!PDT: 1888
!!!AGN: Sacred; Cantata
!!!SMS-siglum: PL-Wtm
!!!SMS-shelfmark: R 65/N
!!!SMS-shelfwork: W
!!!SMS-variant:
!!!SMS-altvar:
!!!NIFC-rismid: 1001101427
!!!URL-scan: http://repozytorium.nifc.pl/skany/pl-wtm-nut--r65n
!!!ONB-nifc:
!!!OMD: Tempo di Polacca Maestoso
!!!key:
**kern	**kern	**dynam	**kern	**dynam	**kern	**text	**text	**dynam	**kern	**text	**text	**dynam
*part4	*part4	*part4	*part3	*part3	*part2	*part2	*part2	*part2	*part1	*part1	*part1	*part1
*staff5	*staff4	*	*staff3	*	*staff2	*staff2	*staff2	*	*staff1	*staff1	*staff1	*
*Iforte	*Iempty	*	*Iempty	*	*Itenor	*	*	*	*Isoprn	*	*	*
*I"[Fortepian]	*	*	*I"Bas	*	*I"Tenor	*	*	*	*I"Sopran Alt	*	*	*
*clefF4	*clefG2	*	*clefF4	*	*clefG2	*	*	*	*clefG2	*	*	*
*	*	*	*	*	*ITrd7c12	*	*	*	*	*	*	*
*k[b-e-a-]	*k[b-e-a-]	*	*k[b-e-a-]	*	*k[b-e-a-]	*	*	*	*k[b-e-a-]	*	*	*
*E-:	*E-:	*	*E-:	*	*E-:	*	*	*	*E-:	*	*	*
*M3/4	*M3/4	*	*M3/4	*	*M3/4	*	*	*	*M3/4	*	*	*
*>[A,B,B,A,C]	*>[A,B,B,A,C]	*	*>[A,B,B,A,C]	*	*>[A,B,B,A,C]	*	*	*	*>[A,B,B,A,C]	*	*	*
!!LO:TX:t=P:problem:4\ 8\ 16\ right or left:global
=1	=1	=1	=1	=1	=1	=1	=1	=1	=1	=1	=1	=1
*>A	*>A	*	*>A	*	*>A	*	*	*	*>A	*	*	*
!	!	!	!	!	!	!	!	!	!LO:TX:t=[segno]	!	!	!
4.EE-/ 4.E-	4.e-/ 4.ee-	ff	2.ryy	.	2.ryy	.	.	.	2.ryy	.	.	.
!	!LO:TX:b:i:t=pomposo	!	!	!	!	!	!	!	!	!	!	!
8CC/L 8C	8c/L 8cc	.	.	.	.	.	.	.	.	.	.	.
8CC/ 8C	8c/ 8cc	.	.	.	.	.	.	.	.	.	.	.
8DD/J 8D	8d/J 8dd	.	.	.	.	.	.	.	.	.	.	.
=2	=2	=2	=2	=2	=2	=2	=2	=2	=2	=2	=2	=2
8EE-/L 8E-	8e-/L 8ee-	.	2.ryy	.	2.ryy	.	.	.	2.ryy	.	.	.
8CC/ 8C	8c/ 8cc	.	.	.	.	.	.	.	.	.	.	.
8GG/ 8G	8g/ 8gg	.	.	.	.	.	.	.	.	.	.	.
8FF/ 8F	8f/ 8ff	.	.	.	.	.	.	.	.	.	.	.
8EE-/ 8E-	8e-/ 8ee-	.	.	.	.	.	.	.	.	.	.	.
8GG/J 8G	8g/J 8gg	.	.	.	.	.	.	.	.	.	.	.
=3	=3	=3	=3	=3	=3	=3	=3	=3	=3	=3	=3	=3
8GGG^</L 8GG	8b-^>\L 8ee- 8bb-	.	2.ryy	.	2.ryy	.	.	.	2.ryy	.	.	.
8AAA-^</ 8AA-	8cc^>\ 8ee- 8ccc	.	.	.	.	.	.	.	.	.	.	.
8CC^</ 8C	8a-^>\ 8ee- 8aa-	.	.	.	.	.	.	.	.	.	.	.
8DD^</J 8D	8f^>\ 8a- 8b- 8ff	.	.	.	.	.	.	.	.	.	.	.
8EE-^>\L 8E-	8e-^>\ 8g 8b- 8ee-	.	.	.	.	.	.	.	.	.	.	.
8AA-^>\J 8A-	8c^>\J 8e- 8a- 8cc	.	.	.	.	.	.	.	.	.	.	.
=4	=4	=4	=4	=4	=4	=4	=4	=4	=4	=4	=4	=4
8FF^</L 8F	8d^</L 8a- 8b- 8dd	.	2.ryy	.	2.ryy	.	.	.	2.ryy	.	.	.
8EE-^</J 8E-	8e-^</J 8g 8b- 8ee-	.	.	.	.	.	.	.	.	.	.	.
!LO:TX:t=P:problem:mixed beam	!	!	!	!	!	!	!	!	!	!	!	!
8BBB-^</L 8BB-	8f^</L 8b- 8dd 8ff	.	.	.	.	.	.	.	.	.	.	.
!LO:TUP:a	!LO:TUP:a	!	!	!	!	!	!	!	!	!	!	!
24B-\L	24b-/L	.	.	.	.	.	.	.	.	.	.	.
24B-\	24b-/	.	.	.	.	.	.	.	.	.	.	.
24B-\JJ	24b-/JJ	.	.	.	.	.	.	.	.	.	.	.
8B-\	8b-\	.	.	.	.	.	.	.	.	.	.	.
8r	8r	.	.	.	.	.	.	.	.	.	.	.
=5	=5	=5	=5	=5	=5	=5	=5	=5	=5	=5	=5	=5
[<4GGG/ [>4GG	[<4g\ [>4bn [>4dd [>4gg	.	2.ryy	.	2.ryy	.	.	.	2.ryy	.	.	.
8.GGG/L] 8.GG]	8.g\L] 8.bn] 8.dd] 8.gg]	.	.	.	.	.	.	.	.	.	.	.
16CC/Jk 16C	16e-\Jk 16g 16cc 16ee-	.	.	.	.	.	.	.	.	.	.	.
8.CC/L 8.C	8.e-\L 8.g 8.cc 8.ee-	.	.	.	.	.	.	.	.	.	.	.
16GGG/Jk 16GG	16g\Jk 16bn 16dd 16gg	.	.	.	.	.	.	.	.	.	.	.
!!LO:LB:g=original
=6	=6	=6	=6	=6	=6	=6	=6	=6	=6	=6	=6	=6
8.GGG/L 8.GG	8.g\L 8.bn 8.dd 8.gg	.	2.r	.	2.r	.	.	.	2.r	.	.	.
16CC/Jk 16C	16e-\Jk 16g 16cc 16ee-	.	.	.	.	.	.	.	.	.	.	.
8.CC/L 8.C	8.e-\L 8.g 8.cc 8.ee-	.	.	.	.	.	.	.	.	.	.	.
16FFF/Jk 16FF	16a-\Jk 16cc 16ee- 16aa-	.	.	.	.	.	.	.	.	.	.	.
8.FFF/L 8.FF	8.a-\L 8.cc 8.ee- 8.aa-	.	.	.	.	.	.	.	.	.	.	.
16AAA-/Jk 16AA-	16f\Jk 16b-X 16dd 16ff	.	.	.	.	.	.	.	.	.	.	.
=7	=7	=7	=7	=7	=7	=7	=7	=7	=7	=7	=7	=7
8.AAA-/L 8.AA-	8.f\L 8.b- 8.dd 8.ff	.	2.r	.	2.r	.	.	.	2.r	.	.	.
16GGG/Jk 16GG	16b-\Jk 16ee- 16bb-	.	.	.	.	.	.	.	.	.	.	.
8.GGG/L 8.GG	8.b-\L 8.ee- 8.bb-	.	.	.	.	.	.	.	.	.	.	.
16CC/Jk 16C	16e-\Jk 16g 16cc 16ee-	.	.	.	.	.	.	.	.	.	.	.
8.CC/L 8.C	8.e-\L 8.g 8.cc 8.ee-	.	.	.	.	.	.	.	.	.	.	.
16BBB-/Jk 16BB-	16f\Jk 16b- 16dd 16ff	.	.	.	.	.	.	.	.	.	.	.
=8	=8	=8	=8	=8	=8	=8	=8	=8	=8	=8	=8	=8
*	*	*	*	*	*	*	*	*	*^	*	*	*
4BBB-/ 4BB-	8f\L 8b- 8dd 8ff	.	4r	.	4r	.	.	.	4r	4rcyy	.	.	.
.	8g\J 8gg	.	.	.	.	.	.	.	.	.	.	.	.
8EE-/ 8E-	8e-/L 8g 8b- 8ee-	.	4r	.	4r	.	.	.	4r	4rcyy	.	.	.
*Xtuplet	*	*	*	*	*	*	*	*	*	*	*	*	*
!	!LO:TUP:b	!	!	!	!	!	!	!	!	!	!	!	!
24B-\LL	24b-/L	.	.	.	.	.	.	.	.	.	.	.	.
24B-\	24b-/	.	.	.	.	.	.	.	.	.	.	.	.
24B-\JJ	24b-/JJ	.	.	.	.	.	.	.	.	.	.	.	.
!	!	!	!	!LO:DY:a:rj	!	!	!	!LO:DY:b:rj	!	!	!	!	!LO:DY:rj
!	!	!	!LO:TX:t=P:problem:dynamika na pięciolinii:global	!	!LO:TX:t=P:problem:dynamika na pięciolinii:global	!	!	!	!	!LO:TX:t=P:problem:dynamika na pięciolinii:global	!	!	!
8B-\L	8b-/L	.	8B-\	f	8B-\	.	.	f	8b-/	8b-\	Sła-	.	f
8B-\J	8b-/J	.	8B-\	.	8B-\	.	.	.	8b-/	8b-\	-wa	.	.
=9	=9	=9	=9	=9	=9	=9	=9	=9	=9	=9	=9	=9	=9
8.c-X\L	8.cc-X\L	.	2.c-X\	.	2.c-X\	.	.	.	2.cc-X/	2.cc-\	To-	.	.
16C-X\Jk 16c-	16e-\Jk 16g-X 16cc- 16ee-	.	.	.	.	.	.	.	.	.	.	.	.
8.C-\L 8.c-	8.e-\L 8.g- 8.cc- 8.ee-	.	.	.	.	.	.	.	.	.	.	.	.
16EE-\Jk 16E-	16g-\Jk 16cc- 16gg-X	.	.	.	.	.	.	.	.	.	.	.	.
8.FF-X/L 8.F-X	8.a-\L 8.cc- 8.aa-	.	.	.	.	.	.	.	.	.	.	.	.
16EE-/Jk 16E-	16cc-\Jk 16gg- 16ccc-X	.	.	.	.	.	.	.	.	.	.	.	.
=10	=10	=10	=10	=10	=10	=10	=10	=10	=10	=10	=10	=10	=10
8.EE-/L 8.E-	8.cc-X\L 8.gg-X 8.ccc-X	.	4c-X\	.	4e-\	.	.	.	4cc-X\ 4ee-	4rcyy	-bie	.	.
16CC-X/Jk 16C-X	16ee-\Jk 16gg- 16ccc- 16eee-	.	.	.	.	.	.	.	.	.	.	.	.
8CC-/ 8C-	8ee-\ 8gg- 8ccc- 8eee-	.	4r	.	4r	.	.	.	4r	4rcyy	.	.	.
8r	8r	.	.	.	.	.	.	.	.	.	.	.	.
8B-\L	8b-\L	.	8B-\	.	8B-\	.	.	.	8b-/	8b-\	Sła-	.	.
8B-\J	8b-\J	.	8B-\	.	8B-\	.	.	.	8b-/	8b-\	-wa	.	.
!!LO:LB:g=original
=11	=11	=11	=11	=11	=11	=11	=11	=11	=11	=11	=11	=11	=11
8.c-X\L	8.cc-X\L	.	2.c-X\	.	2.c-X\	.	.	.	2.cc-X/	2.cc-\	To-	.	.
16AA-\Jk 16A-	16e-\Jk 16a- 16cc- 16ee-	.	.	.	.	.	.	.	.	.	.	.	.
8.AA-\L 8.A-	8.e-\L 8.a- 8.cc- 8.ee-	.	.	.	.	.	.	.	.	.	.	.	.
16C-X\Jk 16c-	16a-\Jk 16ee- 16aa-	.	.	.	.	.	.	.	.	.	.	.	.
8.C-\L 8.c-	8.a-\L 8.ee- 8.aa-	.	.	.	.	.	.	.	.	.	.	.	.
16AA-\Jk 16A-	16cc-\Jk 16ee- 16aa- 16ccc-X	.	.	.	.	.	.	.	.	.	.	.	.
*	*	*	*	*	*	*	*	*	*v	*v	*	*	*
=12	=12	=12	=12	=12	=12	=12	=12	=12	=12	=12	=12	=12
8.AA-/L 8.A-	8.cc-X\L 8.ee- 8.aa- 8.ccc-X	.	4c-X\	.	4e-\	.	.	.	4cc-X\ 4ee-	-bie	.	.
16AAA-/Jk 16AA-	16ee-\Jk 16aa- 16ccc- 16eee-	.	.	.	.	.	.	.	.	.	.	.
8AAA-/ 8AA-	8ee-\ 8aa- 8ccc- 8eee-	.	4r	.	4r	.	.	.	4r	.	.	.
8r	8r	.	.	.	.	.	.	.	.	.	.	.
*	*	*	*	*	*	*	*	*	*^	*	*	*
8B-\L	8b-\L	.	8B-\	.	8B-\	.	.	.	8b-/	8b-\	Sła-	.	.
8B-\J	8b-\J	.	8B-\	.	8B-\	.	.	.	8b-/	8b-\	-wa	.	.
=13	=13	=13	=13	=13	=13	=13	=13	=13	=13	=13	=13	=13	=13
8Bn\L	8bn\L	.	(>2.Bn\	.	(>2.Bn\	.	.	.	(>2.bn/	(<2.bn\	To-	.	.
16r	16r	.	.	.	.	.	.	.	.	.	.	.	.
16EEn\Jk 16Eny	16g#X\Jk 16b 16een 16gg#X	.	.	.	.	.	.	.	.	.	.	.	.
8EE\L 8E	8g#\L 8b 8ee 8gg#	.	.	.	.	.	.	.	.	.	.	.	.
16r	16r	.	.	.	.	.	.	.	.	.	.	.	.
16G#X\Jk 16B 16en	16b\Jk 16ee 16gg# 16bbn	.	.	.	.	.	.	.	.	.	.	.	.
8G#\L 8B 8e	8b\L 8ee 8gg# 8bb	.	.	.	.	.	.	.	.	.	.	.	.
16r	16r	.	.	.	.	.	.	.	.	.	.	.	.
16EE\Jk 16E	16ee\Jk 16gg# 16bb 16eee-	.	.	.	.	.	.	.	.	.	.	.	.
=14	=14	=14	=14	=14	=14	=14	=14	=14	=14	=14	=14	=14	=14
8CCn/L 8Cn	8een\L 8ggn 8cccn 8eeen	.	2.c\)	.	2.c\)	.	.	.	2.cc/)	2.cc\)	.	.	.
16r	16r	.	.	.	.	.	.	.	.	.	.	.	.
16CC/Jk 16C	16cc\Jk 16ee 16gg 16ccc	.	.	.	.	.	.	.	.	.	.	.	.
8CC/L 8C	8cc\L 8ee 8gg 8ccc	.	.	.	.	.	.	.	.	.	.	.	.
16r	16r	.	.	.	.	.	.	.	.	.	.	.	.
16En/Jk 16Gn 16c	16g\Jk 16cc 16ee 16gg	.	.	.	.	.	.	.	.	.	.	.	.
8E\L 8G 8c	8g\L 8cc 8ee 8gg	.	.	.	.	.	.	.	.	.	.	.	.
16r	16r	.	.	.	.	.	.	.	.	.	.	.	.
16CC\Jk 16C	16en\Jk 16g 16cc 16ee	.	.	.	.	.	.	.	.	.	.	.	.
!!LO:LB:g=original
=15	=15	=15	=15	=15	=15	=15	=15	=15	=15	=15	=15	=15	=15
!LO:TX:t=P:problem:mixed beam	!	!	!	!	!	!	!	!	!	!	!	!	!
8GGG/L 8GG	8d/L 8g 8bn 8dd	.	[>2.d\	.	[>2.d\	.	.	.	[>2.dd/	[<2.dd\	-bie!	.	.
16r	16r	.	.	.	.	.	.	.	.	.	.	.	.
16G\Jk 16Bn 16d	16g/Jk 16b 16dd 16gg	.	.	.	.	.	.	.	.	.	.	.	.
8G\L 8B 8d	8g\L 8b 8dd 8gg	.	.	.	.	.	.	.	.	.	.	.	.
16r	16r	.	.	.	.	.	.	.	.	.	.	.	.
16G\Jk 16B 16d	16b\Jk 16dd 16gg 16bbn	.	.	.	.	.	.	.	.	.	.	.	.
!LO:TX:t=P:problem:mixed beam	!	!	!	!	!	!	!	!	!	!	!	!	!
8G\L 8B 8d	8b\L 8dd 8gg 8bb	.	.	.	.	.	.	.	.	.	.	.	.
16r	16r	.	.	.	.	.	.	.	.	.	.	.	.
16GGG/Jk 16GG	16dd\Jk 16gg 16bb 16ddd	.	.	.	.	.	.	.	.	.	.	.	.
=16	=16	=16	=16	=16	=16	=16	=16	=16	=16	=16	=16	=16	=16
8BBB-X\L 8BB-X	8dd\L 8aa-X 8bb-X 8ddd	.	2d\]	.	2d\]	.	.	.	2dd/]	2dd\]	.	.	.
16r	16r	.	.	.	.	.	.	.	.	.	.	.	.
16F\Jk 16A- 16B- 16d	16b-\Jk 16dd 16ff 16bb-	.	.	.	.	.	.	.	.	.	.	.	.
8F\ 8A- 8B- 8d	8b-\ 8dd 8ff 8bb-	.	.	.	.	.	.	.	.	.	.	.	.
8r	8r	.	.	.	.	.	.	.	.	.	.	.	.
8c\L	8cc\L 8ccc	.	8c\	.	8c\	.	.	.	8cc/	8cc\	Sła-	.	.
8B-\J 8d	8dd\J 8bb- 8ddd	.	8B-\	.	8d\	.	.	.	8ryy	8b- 8dd\	-wa	.	.
*	*	*	*	*	*	*	*	*	*v	*v	*	*	*
=17	=17	=17	=17	=17	=17	=17	=17	=17	=17	=17	=17	=17
8EE-\L 8E-	4.ee-\ 4.gg 4.bb- 4.eee-	.	4.E-\	.	4.B-\	.	.	.	4.g\ 4.ee-	To-	.	.
16G\L 16B- 16e-	.	.	.	.	.	.	.	.	.	.	.	.
16G\JJ 16B- 16e-	.	.	.	.	.	.	.	.	.	.	.	.
*tremolo	*	*	*	*	*	*	*	*	*	*	*	*
8G\L 8B- 8e-	.	.	.	.	.	.	.	.	.	.	.	.
8G\J 8B- 8e-	8dd\ 8ddd	.	8E-\	.	8B-\	.	.	.	8g\ 8dd	-bie!	.	.
*Xtremolo	*	*	*	*	*	*	*	*	*	*	*	*
8G\L 8B- 8e-	8b-\L 8bb-	.	8E-\	.	8e-\	.	.	.	8g/ 8b-	1. boś	3. wiecz-	.
8EE-\J 8E-	8dd\J 8ddd	.	8E-\	.	8B-\	.	.	.	8g/ 8dd	Ty	-na	.
=18	=18	=18	=18	=18	=18	=18	=18	=18	=18	=18	=18	=18
8EE-\L 8E-	8.cc\L 8.ee- 8.aa- 8.ccc	.	8.E-\	.	8.e-\	.	.	.	8.a-/ 8.cc	w_cią-	sła-	.
16A-\L 16c 16e-	.	.	.	.	.	.	.	.	.	.	.	.
16A-\JJ 16c 16e-	16a-\Jk 16aa-	.	16E-\	.	16e-\	.	.	.	16f/ 16a-	-gu	-wa	.
*tremolo	*	*	*	*	*	*	*	*	*	*	*	*
8G\L 8B- 8e-	4.b-\ 4.bb-	.	4.E-\	.	4.e-\	.	.	.	4.g/ 4.b-	Lat	Nasz	.
8G\J 8B- 8e-	.	.	.	.	.	.	.	.	.	.	.	.
*Xtremolo	*	*	*	*	*	*	*	*	*	*	*	*
8G\L 8B- 8e-	.	.	.	.	.	.	.	.	.	.	.	.
8EE-\J 8E-	8g\ 8b- 8ee- 8gg	.	8E-\	.	8B-\	.	.	.	8e-/ 8g	czter-	Ce-	.
!!LO:PB:g=original
=19	=19	=19	=19	=19	=19	=19	=19	=19	=19	=19	=19	=19
*	*	*	*	*	*	*	*	*	*^	*	*	*
8DD\L 8D	4.b-\ 4.ff 4.bb-	.	4.D\	.	4.B-\	.	.	.	4.f/ 4.b-	4.rcyy	-dzie-	-sa-	.
16A-\L 16B- 16f	.	.	.	.	.	.	.	.	.	.	.	.	.
16A-\JJ 16B- 16f	.	.	.	.	.	.	.	.	.	.	.	.	.
8A-\ 8B- 8f	.	.	.	.	.	.	.	.	.	.	.	.	.
8r	8f\L 8ff	.	8D\	.	8B-\	.	.	.	8f/	8f\	-stu	-rzu	.
4BBB-/ 4BB-	8a-\ 8dd 8aa-	.	8BB-/	.	8B-\	.	.	.	8d/ 8a-	4rcyy	pa-	wszech-	.
.	8g\J 8gg	.	8BB-/	.	8B-\	.	.	.	8d/ 8g	.	-no-	-po-	.
=20	=20	=20	=20	=20	=20	=20	=20	=20	=20	=20	=20	=20	=20
!	!	!	!	!	!	!	!	!	!LO:TX:t=P:problem:8. i 4 jako osobne nuty	!	!	!	!
4EE-/ 4E-	8.g\L 8.ee-	.	4E-\	.	(<8.G/L	.	.	.	(>8.e-/L	4e-\	-wa-	-tęż-	.
.	16a-\Jk 16ee- 16ff	.	.	.	16A-/Jk)	.	.	.	16f/Jk)	.	.	.	.
4EE-/ 4E-	8b-\L 8ee- 8gg	.	4E-\	.	4B-\	.	.	.	4g/	4e-\	-nia	-ny	.
.	16dd\L	.	.	.	.	.	.	.	.	.	.	.	.
.	16ee-\JJ	.	.	.	.	.	.	.	.	.	.	.	.
4r	16g\LL	.	4r	.	4r	.	.	.	4r	4rcyy	.	.	.
.	16b-\	.	.	.	.	.	.	.	.	.	.	.	.
.	16ee-\	.	.	.	.	.	.	.	.	.	.	.	.
.	16gg\JJ	.	.	.	.	.	.	.	.	.	.	.	.
=21	=21	=21	=21	=21	=21	=21	=21	=21	=21	=21	=21	=21	=21
8AA-\L 8A-	16ff\LL	.	8.A-\	.	8.c\	.	.	.	8.f/	8.f\	Był	Ta-	.
.	16f\	.	.	.	.	.	.	.	.	.	.	.	.
8A-\J 8c 8f	16a-\	.	.	.	.	.	.	.	.	.	.	.	.
.	16cc\JJ	.	16A-\	.	16c\	.	.	.	16f/	16f\	na-	-kiem	.
8FF\L 8F	16ff\LL	.	4.F\	.	4.c\	.	.	.	4.f/ 4.a-	2rcyy	-ro-	e-	.
.	16cc\	.	.	.	.	.	.	.	.	.	.	.	.
16A-\L 16c 16f	16ff\	.	.	.	.	.	.	.	.	.	.	.	.
16A-\JJ 16c 16f	16aa-\JJ	.	.	.	.	.	.	.	.	.	.	.	.
*tremolo	*	*	*	*	*	*	*	*	*	*	*	*	*
8A-\L 8c 8f	16ccc\LL	.	.	.	.	.	.	.	.	.	.	.	.
.	16aa-\	.	.	.	.	.	.	.	.	.	.	.	.
8A-\J 8c 8f	16ff\	.	8F\	.	8A-/	.	.	.	8f/ 8cc	.	-dom	-chem	.
.	16cc\JJ	.	.	.	.	.	.	.	.	.	.	.	.
*Xtremolo	*	*	*	*	*	*	*	*	*	*	*	*	*
*	*	*	*	*	*	*	*	*	*v	*v	*	*	*
=22	=22	=22	=22	=22	=22	=22	=22	=22	=22	=22	=22	=22
4DD/ 4D	16bbn\LL	.	8D\	.	8G/	.	.	.	8f/ 8bn	Two-	w_świat	.
.	16bn\	.	.	.	.	.	.	.	.	.	.	.
.	16ff\	.	8D\	.	8G/	.	.	.	8f/ 8g	-im	sze-	.
.	16gg\JJ	.	.	.	.	.	.	.	.	.	.	.
8EE-/L 8E-	8cc\L 8gg 8ccc	.	(>8E-\L	.	(<8G/L	.	.	.	(<8g/L 8cc	Oj-	-ro-	.
8DD/J 8D	8dd\J 8bbn 8ddd	.	8D\J)	.	8Bn/J)	.	.	.	8f/J) 8dd	.	.	.
4CC/ 4C	8ee-\L 8ccc 8eee-	.	4C/	.	4c\	.	.	.	4e-/ 4ee-	-cem	-ki	.
.	16ccc\L	.	.	.	.	.	.	.	.	.	.	.
.	16gg\JJ	.	.	.	.	.	.	.	.	.	.	.
!!LO:LB:g=original
=23	=23	=23	=23	=23	=23	=23	=23	=23	=23	=23	=23	=23
8FF\L 8F	16aan\LL	.	8.F\	.	8.c\	.	.	.	8.f/ 8.an	Był	Le-	.
.	16an\	.	.	.	.	.	.	.	.	.	.	.
8An\J 8f	16cc\	.	.	.	.	.	.	.	.	.	.	.
.	16ff\JJ	.	16F\	.	16c\	.	.	.	16f/ 16a	ka-	-ci	.
8EE-\L 8E-	16aa\LL	.	4.E-\	.	4.An/	.	.	.	4.f/ 4.cc	-pła-	głos	.
.	16cc\	.	.	.	.	.	.	.	.	.	.	.
16A\L 16f	16ff\	.	.	.	.	.	.	.	.	.	.	.
16A\JJ 16f	16aa\JJ	.	.	.	.	.	.	.	.	.	.	.
8A\L 8f	16ccc\LL	.	.	.	.	.	.	.	.	.	.	.
.	16aa\	.	.	.	.	.	.	.	.	.	.	.
8CC\J 8C	16ee-\	.	8C/	.	8A/	.	.	.	8f/ 8ee-	-nem	na-	.
.	16aa\JJ 16eee-	.	.	.	.	.	.	.	.	.	.	.
=24	=24	=24	=24	=24	=24	=24	=24	=24	=24	=24	=24	=24
*	*	*	*	*	*	*	*	*	*^	*	*	*
8BBB-/L 8BB-	8dd\L 8bb- 8ddd	.	8BB-/	.	8B-\	.	.	.	8f/ 8dd	4rcyy	Zmar-	-ro-	.
8EE-/J 8E-	8an\J 8ff 8aan	.	8E-\	.	8c\	.	.	.	8f/ 8an	.	-twych-	-dów	.
8DD\L 8D	16bb-\LL	.	4D/	.	4B-\	.	.	.	(<8b-/L	4f\	-wsta-	męż-	.
.	16ff\	.	.	.	.	.	.	.	.	.	.	.	.
8F\J 8B- 8d	16bb-\	.	.	.	.	.	.	.	8dd/J)	.	.	.	.
.	16ddd\JJ	.	.	.	.	.	.	.	.	.	.	.	.
8BBB-/L 8BB-	4ff\ 4fff	.	4BB-/	.	4d\	.	.	.	4ff/	4b-\	-nia!	-ny	.
8F/J 8B- 8d	.	.	.	.	.	.	.	.	.	.	.	.	.
*	*	*	*	*	*	*	*	*	*v	*v	*	*	*
=25	=25	=25	=25	=25	=25	=25	=25	=25	=25	=25	=25	=25
4AAAn/ 4AAn	8.ff\L 8.ccc 8.fff	.	8.AAn/	.	8.c\	.	.	.	8.f/ 8.ff	Był	Ta-	.
.	16ee-\Jk 16eee-	.	16AA/	.	16c\	.	.	.	16f/ 16ee-	na-	-kiem	.
8BBB-/L 8BB-	8dd\L 8bb- 8ddd	.	8BB-/	.	8B-\	.	.	.	8f/ 8dd	-ro-	e-	.
8EE-/J 8E-	8cc\J 8gg 8ccc	.	8E-\	.	8G/	.	.	.	8g/ 8cc	-dom	-chem	.
4DD/ 4D	8b-\L 8ff#X 8bb-	.	8D\	.	8d\	.	.	.	8f#X/ 8b-	Two-	w_świat	.
.	8an\J 8aan	.	8D\	.	8c\	.	.	.	8f#/ 8an	-im	sze-	.
=26	=26	=26	=26	=26	=26	=26	=26	=26	=26	=26	=26	=26
*	*	*	*	*	*	*	*	*	*^	*	*	*
4GG/ 4G	4g\ 4b- 4dd 4gg	.	4G\	.	4B-\	.	.	.	4g/	4g\	Oj-	-ro-	.
4GGG/ 4GG	4b-\ 4dd 4gg 4bb-	.	4G\	.	4B-\	.	.	.	4d/ 4b-	2rcyy	-cem	-ki	.
8CC\L 8C	8an\L 8aan	.	8C/	.	8B-\	.	.	.	8en/ 8an	.	Był	Le-	.
8G\J 8B-	8g\J 8een 8gg	.	8C/	.	8B-\	.	.	.	8e/ 8g	.	ka-	-ci	.
*	*	*	*	*	*	*	*	*	*v	*v	*	*	*
!!LO:LB:g=original
=27	=27	=27	=27	=27	=27	=27	=27	=27	=27	=27	=27	=27
4FF/ 4F	8f\L 8dd 8ff	.	8F\	.	8B-\	.	.	.	8d/ 8f	-pła-	głos	.
.	8g\J 8ee-X 8gg	.	8F\	.	8B-\	.	.	.	8e-/ 8g-X	-nem	na-	.
!LO:TX:t=P:problem:mixed beam	!	!	!	!	!	!	!	!	!	!	!	!
8FFF/L 8FF	4.ee-\ 4.eee-	.	4.F\	.	4.G/	.	.	.	4.e-/ 4.ee-	Zmar-	-ro-	.
16G\L 16e-	.	.	.	.	.	.	.	.	.	.	.	.
16G\JJ 16e-	.	.	.	.	.	.	.	.	.	.	.	.
8G\L 8e-	.	.	.	.	.	.	.	.	.	.	.	.
8G#X\J 8e-	8dd\ 8ddd	.	8F\	.	8G#X/	.	.	.	8e-/ 8dd	-twych-	-dów	.
=28	=28	=28	=28	=28	=28	=28	=28	=28	=28	=28	=28	=28
*	*	*	*	*	*	*	*	*	*^	*	*	*
4F\ 4An 4e-	8cc\L 8ccc	.	4F\	.	(<8An/L	.	.	.	(<8cc/L	4e-\	-wsta-	męż-	.
.	8an\J 8aan	>	.	.	8c/J)	.	.	.	8an/J)	.	.	.	.
8BB-\L 8F 8d	8b-\L 8bb-	.	4BB-/	.	4B-\	.	.	.	4d/ 4b-	2rcyy	-nia	-ny	.
16B-\L	16b-\L	.	.	.	.	.	.	.	.	.	.	.	.
16B-\JJ	16b-\JJ	.	.	.	.	.	.	.	.	.	.	.	.
8B-\L	8b-\L	]	4r	.	4r	.	.	.	4r	.	.	.	.
8B-\J	8b-\J	.	.	.	.	.	.	.	.	.	.	.	.
=29||	=29||	=29||	=29||	=29||	=29||	=29||	=29||	=29||	=29||	=29||	=29||	=29||	=29||
*	*^	*	*	*	*	*	*	*	*	*	*	*	*
!	!	!	!LO:DY:rj	!	!	!	!	!	!	!	!	!	!	!LO:DY:b:rj
4CC-X/ 4C-X	(>8.a-/L	8rc	p	2.r	.	2.r	.	.	.	8.a-/	8.a-\	W_dniu	A	p
.	.	8c-X\ 8e-	.	.	.	.	.	.	.	.	.	.	.	.
.	16b-/Jk	.	.	.	.	.	.	.	.	16b-/	16b-\	ob-	do	.
4AAA-/ 4AA-	8cc-X/L	8rc	.	.	.	.	.	.	.	8cc-X/	8cc-\	-ję-	Tro-	.
.	8a-/J	8c-\ 8e-	.	.	.	.	.	.	.	8a-/	8a-\	-cia	-nu	.
4DD-X/ 4D-X	8b-/L	8rc	.	.	.	.	.	.	.	8b-/	8b-\	przez	Przed-	.
.	8f/J	8A-\ 8c-	.	.	.	.	.	.	.	8f/	8f\	Cię	-wiecz-	.
=30	=30	=30	=30	=30	=30	=30	=30	=30	=30	=30	=30	=30	=30	=30
!	!	!	!	!	!LO:DY:b:rj	!	!	!	!LO:DY:b:rj	!	!	!	!	!
2GGG-X/ 2GG-X	8g-X/L	8rc	.	8.G-X\	p	8.G-X/	W_dniu	A	p	(>8g-X/L	8g-\L	Tro-	-ne-	.
.	8e-/J	8G-X\ 8B-	.	.	.	.	.	.	.	8e-/J)	8e-\J	.	.	.
.	.	.	.	16A-\	.	16A-/	ob-	do	.	.	.	.	.	.
.	4.d-X/)	8r<	.	8B-\	.	8B-/	-ję-	Tro-	.	2d-X/	2d-\	-nu	-go	.
.	.	8F</L 8B-<	.	8F\	.	8F/	-cia	-nu	.	.	.	.	.	.
4GGG-\ 4GG-	.	8G-X</	.	8G-\	.	8G-/	przez	Przed-	.	.	.	.	.	.
.	8d-/	8F</J 8B-<	.	8F\	.	8F/	Cię	-wiecz-	.	.	.	.	.	.
*	*v	*v	*	*	*	*	*	*	*	*	*	*	*	*
!!LO:LB:g=original
=31	=31	=31	=31	=31	=31	=31	=31	=31	=31	=31	=31	=31	=31
2CC-X/ 2C-X	8e-/L	.	(>8G-X\L	.	(<8G-X/L	tro-	-ne-	.	8e-/	8e-\	Try-	Bło-	.
.	8F/ 8d-X 8f	.	8F\J)	.	8F/J)	.	.	.	8f/	8f\	-sła	-go-	.
.	8G-X/ 8e- 8g-X	.	4E-\	.	4E-/	-nu	-go	.	8g-X/	8g-\	z_głę-	-sła-	.
.	8B-/J 8g- 8b-	.	.	.	.	.	.	.	8b-/	8b-\	-bi	-wieństw	.
4AAA-/ 4AA-	8c-X/L 8a- 8cc-X	.	8r	.	8r	.	.	.	8cc-X/	8cc-\	Twej	proś-	.
.	8e-/J 8ee-	.	8E-\	.	8E-/	Ach!	.	.	8ee-/	8ee-\	mi-	-ba	.
=32	=32	=32	=32	=32	=32	=32	=32	=32	=32	=32	=32	=32	=32
4DD-X/ 4D-X	8dd-X/L	.	(>8F\L	.	(<8F/L	Try-	.	.	(>8dd-X/L	(<8dd-\L	-łoś-	wzla-	.
.	8c-X/J 8f 8a-	.	8c-X\J)	.	8c-X/J)	.	.	.	8a-/J)	8a-\J)	.	.	.
4GGG-X/ 4GG-X	4B-/ 4g 4b-	.	4B-\	.	4B-/	-sła	.	.	4b-/	4b-\	-ci	-ta	.
!	!	!LO:DY:rj	!	!LO:DY:b:rj	!	!	!	!LO:DY:rj	!	!	!	!	!LO:DY:rj
8An^>\L	8an^</L	f	8An\	f	8An/	.	.	f	8an/	8an\	Dla	Byś	f
8B-^>\J	8b-^</J	.	8B-\	.	8B-/	.	.	.	8b-/	8b-\	Twych	nam	.
=33	=33	=33	=33	=33	=33	=33	=33	=33	=33	=33	=33	=33	=33
8G-X^>\L 8B-	8d-X^</L 8g-X 8dd-X	.	4.d-X\	.	4.d-X\	.	.	.	4.dd-X/	4.dd-\	lu-	Wład-	.
16G-\L 16B-	16d-/L 16g- 16dd-	.	.	.	.	.	.	.	.	.	.	.	.
16G-\JJ 16B-	16d-/JJ 16g- 16dd-	.	.	.	.	.	.	.	.	.	.	.	.
8G-\L 8B-	8d-/L 8g- 8dd-	.	.	.	.	.	.	.	.	.	.	.	.
8An\J	8an/J	.	8An\	.	8An/	.	.	.	8an/	8an\	-dów	-co	.
8A\L	8a/L	.	8A\	.	8A/	.	.	.	8a/	8a\	Twe-	u-	.
8B-\J	8b-/J	.	8B-\	.	8B-/	.	.	.	8b-/	8b-\	-go	-ko-	.
=34	=34	=34	=34	=34	=34	=34	=34	=34	=34	=34	=34	=34	=34
8C^>\L 8G-X 8B-	8e-^</L 8g-X 8b- 8ee-	.	4.E-\	.	4.e-\	.	.	.	4.ee-/	4.ee-\	Pańs-	-cha-	.
16C\L 16G- 16B-	16e-/L 16g- 16b- 16ee-	.	.	.	.	.	.	.	.	.	.	.	.
16C\JJ 16G- 16B-	16e-/JJ 16g- 16b- 16ee-	.	.	.	.	.	.	.	.	.	.	.	.
8C\L 8G- 8B-	8e-/L 8g- 8b- 8ee-	.	.	.	.	.	.	.	.	.	.	.	.
8AAn\J 8An	8an/J	.	8An\	.	8An/	.	.	.	8an/	8an\	-twa	-ny	.
8AA\L 8A	8a/L	.	8A\	.	8A/	.	.	.	8a/	8a\	Zo-	Prze-	.
8BB-\J 8B-	8b-/J	.	8B-\	.	8B-/	.	.	.	8b-/	8b-\	-rza	-żył	.
*	*	*	*	*	*	*	*	*	*v	*v	*	*	*
!!LO:PB:g=original
=35	=35	=35	=35	=35	=35	=35	=35	=35	=35	=35	=35	=35
2DD/ 2BBn 2D	4.f\ 4.b- 4.ff	.	4.Dn\	.	4.B-\	.	.	.	4.f/ 4.ff	swo-	jesz-	.
.	8d/ 8dd	.	8D\	.	8B-\	.	.	.	8f/ 8dd	-bód,	-cze	.
8GGn/L 8Gn	8dn/L 8gn 8b-	.	8Gn\	.	8B-\	.	.	.	8d/ 8b-	świt	dłu-	.
8CC/J 8C	8e-/J 8g 8b- 8ee-	.	8C/	.	8B-\	.	.	.	8g/ 8ee-	wol-	-gie	.
=36	=36	=36	=36	=36	=36	=36	=36	=36	=36	=36	=36	=36
*	*	*	*	*	*	*	*	*	*^	*	*	*
4FF/ 4F	8B-/L 8e- 8g	.	4F\	.	(>8B-\L	.	.	.	(<8g/L	4e-\	-noś-	la-	.
.	8c/J 8e- 8an	.	.	.	8c\J)	.	.	.	8an/J)	.	.	.	.
4BBB-/ 4BB-	8B-\L 8d 8b-	.	8B-\	.	8B-\	.	.	.	8b-/	8d\	-ci	-ta,	.
.	8b-\J 8bb-	.	8r	.	8r	.	.	.	8r	8rc	.	.	.
8c\L	8cc\L 8ccc	.	8c\	.	8c\	.	.	.	8cc/	8cc\	Sła-	Sła-	.
8B-\J 8d	8dd\J 8bb- 8ddd	.	8B-\	.	8d\	.	.	.	8b-\ 8dd	8ryy	-wa	-wa	.
*	*	*	*	*	*	*	*	*	*v	*v	*	*	*
=37	=37	=37	=37	=37	=37	=37	=37	=37	=37	=37	=37	=37
8EE-\L 8E-	4.ee-\ 4.gg 4.bb- 4.eee-	.	4.E-\	.	4.B-\	.	.	.	4.g\ 4.ee-	To-	To-	.
16G\L 16B- 16e-	.	.	.	.	.	.	.	.	.	.	.	.
16G\JJ 16B- 16e-	.	.	.	.	.	.	.	.	.	.	.	.
*tremolo	*	*	*	*	*	*	*	*	*	*	*	*
8G\L 8B- 8e-	.	.	.	.	.	.	.	.	.	.	.	.
8G\J 8B- 8e-	8dd\L 8ddd	.	8E-\	.	8B-\	.	.	.	8g\ 8dd	-bie!	-bie!	.
*Xtremolo	*	*	*	*	*	*	*	*	*	*	*	*
8G\L 8B- 8e-	8b-\ 8bb-	.	8E-\	.	8e-\	.	.	.	8g/ 8b-	boś	wiecz-	.
8EE-\J 8E-	8dd\J 8ddd	.	8E-\	.	8B-\	.	.	.	8g/ 8dd	Ty	-na	.
=38	=38	=38	=38	=38	=38	=38	=38	=38	=38	=38	=38	=38
8EE-\L 8E-	8.cc\L 8.ee- 8.aa- 8.ccc	.	8.E-\	.	8.e-\	.	.	.	8.a-/ 8.cc	w_cią-	Sła-	.
16A-\L 16c 16e-	.	.	.	.	.	.	.	.	.	.	.	.
16A-\JJ 16c 16e-	16a-\Jk 16aa-	.	16E-\	.	16e-\	.	.	.	16e-/ 16a-	-gu	-wa	.
*tremolo	*	*	*	*	*	*	*	*	*	*	*	*
8G\L 8B- 8e-	4.b-\ 4.bb-	.	4.E-\	.	4.e-\	.	.	.	4.g/ 4.b-	Lat	Nasz	.
8G\J 8B- 8e-	.	.	.	.	.	.	.	.	.	.	.	.
*Xtremolo	*	*	*	*	*	*	*	*	*	*	*	*
8G\L 8B- 8e-	.	.	.	.	.	.	.	.	.	.	.	.
8EE-\J 8E-	8g\ 8b- 8ee- 8gg	.	8E-\	.	8B-\	.	.	.	8e-/ 8g	czter-	Ce-	.
!!LO:LB:g=original
=39	=39	=39	=39	=39	=39	=39	=39	=39	=39	=39	=39	=39
*	*	*	*	*	*	*	*	*	*^	*	*	*
8BBB-\L 8BB-	4.b-\ 4.ff 4.bb-	.	4.D\	.	4.B-\	.	.	.	4.f/ 4.b-	4rcyy	-dzies-	-sa-	.
16A-\L 16B- 16f	.	.	.	.	.	.	.	.	.	.	.	.	.
16A-\JJ 16B- 16f	.	.	.	.	.	.	.	.	.	.	.	.	.
8A-\ 8B- 8f	.	.	.	.	.	.	.	.	.	8rcyy	.	.	.
8r	8f\L 8ff	.	8D/	.	8B-\	.	.	.	8f/	8f\	-tu	-rzu	.
4BBB-/ 4BB-	8a-\ 8dd 8aa-	.	8BB-/	.	8B-\	.	.	.	8d/ 8a-	4rcyy	pa-	wszech-	.
.	8g\J 8gg	.	8BB-/	.	8B-\	.	.	.	8d/ 8g	.	-no-	-po-	.
=40	=40	=40	=40	=40	=40	=40	=40	=40	=40	=40	=40	=40	=40
!	!	!	!	!	!	!	!	!	!LO:TX:t=P:problem:8. i 4 jako osobne nuty	!	!	!	!
4EE-/ 4E-	8.g\L 8.ee-	.	4E-\	.	(<8.G/L	.	.	.	(>8.e-/L	4e-\	-wa-	-tęż-	.
.	16a-\Jk 16ee- 16ff	.	.	.	16A-/Jk)	.	.	.	16f/Jk)	.	.	.	.
4EE-/ 4E-	8b-\L 8ee- 8gg	>	4E-\	.	4B-\	.	.	.	4e-/ 4g	4e-\	-nia,	-ny!	.
.	16ee-\L	.	.	.	.	.	.	.	.	.	.	.	.
.	16dd\JJ	]	.	.	.	.	.	.	.	.	.	.	.
!	!	!LO:DY:rj	!	!LO:DY:b:rj	!	!	!	!LO:DY:b:rj	!	!	!	!	!LO:DY:b:rj
4G\ 4d-X 4e-	16ee-\LL	p	8G\	p	8d-X\	.	.	p	8e-/	8e-\	Był	Ta-	p
.	16ff\	.	.	.	.	.	.	.	.	.	.	.	.
.	16ee-\	.	8G\	.	8d-\	.	.	.	8e-/	8e-\	na-	-kiem	.
.	16dd-X\JJ	.	.	.	.	.	.	.	.	.	.	.	.
=41	=41	=41	=41	=41	=41	=41	=41	=41	=41	=41	=41	=41	=41
8AA-\L 8A-	16cc\LL	.	4.A-\	.	4.c\	.	.	.	4.e-/ 4.cc	4.ryy	-ro-	e-	.
.	16ee-\	.	.	.	.	.	.	.	.	.	.	.	.
16A-\L 16c 16e-	16cc\	.	.	.	.	.	.	.	.	.	.	.	.
16A-\JJ 16c 16e-	16b-\JJ	.	.	.	.	.	.	.	.	.	.	.	.
4A-\ 4c 4e-	4a-/	.	.	.	.	.	.	.	.	.	.	.	.
.	.	.	8A-\	.	8c\	.	.	.	8a-/	8a-\	-dom	-chem	.
4r	4r	.	8A-\	.	8d-X\	.	.	.	8a-/ 8b-	4rcyy	Two-	w świat	.
.	.	.	8A-\	.	8e-\	.	.	.	8a-/ 8cc	.	-im	sze-	.
=42	=42	=42	=42	=42	=42	=42	=42	=42	=42	=42	=42	=42	=42
8r	8r	.	(>8F\L	.	(>8d-X\L	.	.	.	(>8a-\L 8dd-X	2rcyy	Oj-	-ro-	.
8GG/ 8G	8e-/ 8b- 8ee-	.	8G\J)	.	8B-\J)	.	.	.	8b-\J) 8ee-	.	.	.	.
4AA-/ 4A-	8e-/L 8a- 8cc	.	4A-\	.	4c\	.	.	.	4a-\ 4cc	.	-cem	-ki	.
.	16cc/L	.	.	.	.	.	.	.	.	.	.	.	.
.	16b-/JJ	.	.	.	.	.	.	.	.	.	.	.	.
4r	16a-/LL	.	8A-\	.	8A-/	.	.	.	8a-/	8a-\	Był	Le-	.
.	16g/	.	.	.	.	.	.	.	.	.	.	.	.
.	16a-/	.	8A-\	.	8A-/	.	.	.	8a-/	8a-\	ka-	-ci	.
.	16b-/JJ	.	.	.	.	.	.	.	.	.	.	.	.
!!LO:LB:g=original
=43	=43	=43	=43	=43	=43	=43	=43	=43	=43	=43	=43	=43	=43
8FF\L 8F	16cc\LL	.	4.F\	.	4.A-/	.	.	.	4.f/ 4.cc	4.ryy	-pła-	głos	.
.	16ff\	.	.	.	.	.	.	.	.	.	.	.	.
16F\L 16A- 16c	16cc\	.	.	.	.	.	.	.	.	.	.	.	.
16F\JJ 16A- 16c	16a-\JJ	.	.	.	.	.	.	.	.	.	.	.	.
4F\ 4A- 4c	4f/	.	.	.	.	.	.	.	.	.	.	.	.
.	.	.	8F\	.	8A-/	.	.	.	8f/	8f\	-nem	na-	.
4r	4r	.	8F\	.	8B-\	.	.	.	8f/ 8g	4rcyy	zmar-	-ro-	.
.	.	.	8F\	.	8c\	.	.	.	8f/ 8a-	.	-twych-	-dów	.
=44	=44	=44	=44	=44	=44	=44	=44	=44	=44	=44	=44	=44	=44
8r	8r	.	(<8D-X/L	.	(<8B-/L	.	.	.	(<8f/L 8b-	2rcyy	-wsta-	męż-	.
8CC/ 8C	8en/ 8g 8cc	.	8C/J)	.	8G/J)	.	.	.	8en/J) 8cc	.	.	.	.
4FF/ 4F	4c/ 4f 4a-	.	4F\	.	4A-/	.	.	.	4f/ 4a-	.	-nia	-ny	.
!	!	!LO:DY:rj	!	!LO:DY:b:rj	!	!	!	!LO:DY:b:rj	!	!	!	!	!LO:DY:b:rj
4r	8.a-\L 8.aa-	f	8.A-\	f	8.A-/	.	.	f	8.a-/	8.a-\	Był	Sła-	f
.	16g\Jk 16gg	.	16G\	.	16G/	.	.	.	16g/	16g\	na-	-wa	.
=45	=45	=45	=45	=45	=45	=45	=45	=45	=45	=45	=45	=45	=45
8AAA-\L 8AA-	8g\L 8gg	.	8G\	.	8G/	.	.	.	8g/	8g\	-ro-	To-	.
16D\L 16F 16B- 16d	8en\ 8een	.	8En\	.	8En/	.	.	.	8en/	8en\	-dów	-bie	.
16D\JJ 16F 16B- 16d	.	.	.	.	.	.	.	.	.	.	.	.	.
4D\ 4F 4B- 4d	8f\ 8ff	.	(>8F\L	.	(<8F/L	.	.	.	(>8f/L	(<8f\L	Two-	wiecz-	.
.	8g\ 8gg	.	8G\J)	.	8G/J)	.	.	.	8g/J)	8g\J)	.	.	.
4r	8a-\ 8aa-	<	(>8A-\L	.	(<8A-/L	.	.	.	(>8a-/L	(<8a-\L	-ich	-na	.
.	8b-\J 8bb-	.	8B-\J)	.	8B-/J)	.	.	.	8b-/J)	8b-\J)	.	.	.
*	*	*	*	*	*	*	*	*	*v	*v	*	*	*
=46	=46	=46	=46	=46	=46	=46	=46	=46	=46	=46	=46	=46
8AAA-/L 8AA-	8cc\L 8ccc	.	(>8c\L	.	(>8c\L	.	.	.	(>8cc\L	Oj-	Sła-	.
8GGG/J 8GG	8dd\ 8bbn 8ddd	[	8Bn\	.	8dn\	.	.	.	8bn\ 8ddn	.	.	.
8CC/L 8C	8ff\ 8ccc 8fff	.	8c\J)	.	8c\J)	.	.	.	8g\J) 8ff	.	.	.
8E-/J 8G 8c	8ee-\J 8eee-	.	8c\	.	8c\	.	.	.	8g\ 8ee-	-cem	-wa	.
8AA-/L 8A-	8cc\L 8ccc	.	8A-\	.	8c\	.	.	.	8a-/ 8cc	Był	Nasz	.
8FF/J 8F	8dd\J 8aa- 8bb-X 8ddd	.	8F\	.	8B-X\	.	.	.	8a-/ 8dd	ka-	ce-	.
!!LO:LB:g=original
=47	=47	=47	=47	=47	=47	=47	=47	=47	=47	=47	=47	=47
8EE-/L 8E-	8ee-\L 8gg 8bb- 8eee-	.	8E-\	.	8B-\	.	.	.	8g/ 8ee-	-pła-	-sa-	.
8DD-X/J 8D-X	8g\J 8b- 8ee- 8gg	.	8D-X\	.	8B-\	.	.	.	8e-/ 8g	-nem	-rzu	.
8CC/L 8C	8a-\L 8ee- 8aa-	.	8C/	.	8A-/	.	.	.	8e-/ 8a-	był	nasz	.
8AAA-/J 8AA-	8cc\J 8ee- 8aa- 8ccc	.	8AA-/	.	8A-/	.	.	.	8e-/ 8cc	ka-	Ce-	.
8GGG/L 8GG	8b-\L 8ee- 8bb-	.	8GG/	.	8B-\	.	.	.	8e-/ 8b-	-pła-	-sza-	.
8AAA-/J 8AA-	8a-\J 8cc 8ee- 8aa-	.	8AA-/	.	8c\	.	.	.	8e-/ 8a-	-nem	-rzu	.
=48	=48	=48	=48	=48	=48	=48	=48	=48	=48	=48	=48	=48
*	*	*	*	*	*	*	*	*	*^	*	*	*
4BBB-/ 4BB-	8g\L 8b- 8ee- 8gg	.	8BB-/	.	8B-/	.	.	.	8e-/ 8g	2ryy	Zmar-	wszech-	.
.	8b-\J 8bb-	.	8BB-/	.	8G/	.	.	.	8e-/ 8b-	.	-twych-	-po-	.
8r	4f/ 4a- 4dd 4ff	.	4BB-/	.	4A-/	.	.	.	4d/ 4f	.	-wsta-	-tęż-	.
8BBB-/ 8BB-	.	.	.	.	.	.	.	.	.	.	.	.	.
!LO:TX:i:b:t=ml. Coda	!	!	!	!	!	!	!	!	!LO:TX:a:i:t=ml. Coda	!	!	!	!
8EE-/ 8E-	8e-/ 8g 8b- 8ee-	.	8E-\	.	8G/	.	.	.	8e-/	8e-\	-nia	-ny!	.
8r	8r	.	8r	.	8r	.	.	.	8r	8rcyy	.	.	.
*	*	*	*	*	*	*	*	*	*v	*v	*	*	*
=49!|:	=49!|:	=49!|:	=49!|:	=49!|:	=49!|:	=49!|:	=49!|:	=49!|:	=49!|:	=49!|:	=49!|:	=49!|:
*>B	*>B	*	*>B	*	*>B	*	*	*	*>B	*	*	*
*k[b-e-a-d-]	*k[b-e-a-d-]	*	*k[b-e-a-d-]	*	*k[b-e-a-d-]	*	*	*	*k[b-e-a-d-]	*	*	*
*A-:	*A-:	*	*A-:	*	*A-:	*	*	*	*A-:	*	*	*
*	*	*	*	*	*	*	*	*	*^	*	*	*
!	!LO:TX:a:i:t=Trio	!	!	!	!	!	!	!	!LO:TX:a:B:t=Trio	!	!	!	!
4.E-\	4.e-/	mf	2.r	.	2.r	.	.	.	2.r	2.r	.	.	.
16E-\LL	16e-/LL	>	.	.	.	.	.	.	.	.	.	.	.
16E-\JJ	16e-/JJ	.	.	.	.	.	.	.	.	.	.	.	.
8E-\L	8e-/L	.	.	.	.	.	.	.	.	.	.	.	.
16BB-\L 16E-	16A-/L 16d- 16f	.	.	.	.	.	.	.	.	.	.	.	.
16BB-\JJ 16E-	16A-/JJ 16d- 16f	.	.	.	.	.	.	.	.	.	.	.	.
=50	=50	=50	=50	=50	=50	=50	=50	=50	=50	=50	=50	=50	=50
8BB-/L 8E-	8A-/L 8d- 8f	]	2.r	.	2.r	.	.	.	2.r	2.r	.	.	.
16EE-/L 16E-	16G/L 16d- 16g	.	.	.	.	.	.	.	.	.	.	.	.
16EE-/JJ 16E-	16G/JJ 16d- 16g	.	.	.	.	.	.	.	.	.	.	.	.
8EE-/L 8E-	8G/L 8d- 8g	.	.	.	.	.	.	.	.	.	.	.	.
16BB-/L 16E-	16A-/L 16d- 16f	.	.	.	.	.	.	.	.	.	.	.	.
16BB-/JJ 16E-	16A-/JJ 16d- 16f	.	.	.	.	.	.	.	.	.	.	.	.
8BB-/L 8E-	8A-/L 8d- 8f	.	.	.	.	.	.	.	.	.	.	.	.
8EE-/J 8E-	8G/J 8d- 8e-	.	.	.	.	.	.	.	.	.	.	.	.
!!LO:PB:g=original
=51	=51	=51	=51	=51	=51	=51	=51	=51	=51	=51	=51	=51	=51
4.E-\	4.e-/	.	2.r	.	2.r	.	.	.	2.raa	2.rc	.	.	.
16E-\LL	16e-/LL	.	.	.	.	.	.	.	.	.	.	.	.
16E-\JJ	16e-/JJ	.	.	.	.	.	.	.	.	.	.	.	.
8E-\L	8e-/L	.	.	.	.	.	.	.	.	.	.	.	.
16BB-\L 16E-	16A-/L 16d- 16f 16a-	.	.	.	.	.	.	.	.	.	.	.	.
16BB-\JJ 16E-	16A-/JJ 16d- 16f 16a-	.	.	.	.	.	.	.	.	.	.	.	.
=52	=52	=52	=52	=52	=52	=52	=52	=52	=52	=52	=52	=52	=52
8BB-/L 8E-	8A-/L 8d- 8f 8a-	.	2.r	.	2.r	.	.	.	2.raa	2.rc	.	.	.
16EE-/L 16E-	16B-/L 16d- 16g 16b-	.	.	.	.	.	.	.	.	.	.	.	.
16EE-/JJ 16E-	16B-/JJ 16d- 16g 16b-	.	.	.	.	.	.	.	.	.	.	.	.
8EE-/L 8E-	8B-/L 8d- 8g 8b-	.	.	.	.	.	.	.	.	.	.	.	.
16BB-/L 16E-	16A-/L 16d- 16f 16a-	.	.	.	.	.	.	.	.	.	.	.	.
16BB-/JJ 16E-	16A-/JJ 16d- 16f 16a-	.	.	.	.	.	.	.	.	.	.	.	.
8BB-/L 8E-	8A-/L 8d- 8f 8a-	.	.	.	.	.	.	.	.	.	.	.	.
8EE-/J 8E-	8G/J 8d- 8e- 8g	.	.	.	.	.	.	.	.	.	.	.	.
=53	=53	=53	=53	=53	=53	=53	=53	=53	=53	=53	=53	=53	=53
*	*^	*	*	*	*	*	*	*	*	*	*	*	*
!	!	!	!LO:DY:rj	!	!LO:DY:b:rj	!	!	!	!LO:DY:b:rj	!	!	!	!	!LO:DY:b:rj
4AAA-/ 4AA-	(>8a-/L	8c\ 8e-	p	8A-\	p	8A-/	.	.	p	8a-/	8a-\	2. Sła-	.	p
.	8g/J	8rc	.	8G\	.	8G/	.	.	.	8g/	8g\	-wa	.	.
4CC/ 4C	4.a-/	8A-\ 8e-	.	4.A-\	.	4.A-/	.	.	.	4.a-/	4.a-\	To-	.	.
.	.	8rc	.	.	.	.	.	.	.	.	.	.	.	.
4DD-/ 4D-	.	8A-\ 8d-	.	.	.	.	.	.	.	.	.	.	.	.
.	8f/	8rc	.	8F\	.	8F/	.	.	.	8f/	8f\	-bie!	.	.
=54	=54	=54	=54	=54	=54	=54	=54	=54	=54	=54	=54	=54	=54	=54
4GGG/ 4GG	8g/L	8B-\ 8d-	.	8G\	.	8G/	.	.	.	8g/	8g\	boś	.	.
.	8f/J	8rc	.	8F\	.	8F/	.	.	.	8f/	8f\	u-	.	.
4BBB-/ 4BB-	4.g/	8G\ 8d-	.	4.G\	.	4.G/	.	.	.	4.g/	4.g\	-ko-	.	.
.	.	8rc	.	.	.	.	.	.	.	.	.	.	.	.
4CC/ 4C	.	8G\ 8c	.	.	.	.	.	.	.	.	.	.	.	.
.	8e-/)	8rc	.	8E-\	.	8E-/	.	.	.	8e-/	8e-\	-chał	.	.
!!LO:LB:g=original
=55	=55	=55	=55	=55	=55	=55	=55	=55	=55	=55	=55	=55	=55	=55
4DD-/ 4D-	(>8d-/L	8F\ 8A-	.	8D-/	.	8D-/	.	.	.	8d-/	8d-\	W_Twem	.	.
.	8c/	8r	.	8C/	.	8C/	.	.	.	8c/	8c\	dzie-	.	.
4BBB-/ 4BB-	8d-/	8F\ 8B-	.	8D-/	.	8D-/	.	.	.	8d-/	8d-\	-dzic-	.	.
.	8e-/	8r	.	8E-\	.	8E-/	.	.	.	8e-/	8e-\	-twie	.	.
4AAA-/ 4AA-	8f/	8B-\ 8d-	.	8F\	.	8F/	.	.	.	8f/	8f\	wszyst-	.	.
.	8a-/J	8r	.	8A-\	.	8A-/	.	.	.	8a-/	8a-\	-kie	.	.
*	*	*	*	*	*	*	*	*	*	*v	*v	*	*	*
=56	=56	=56	=56	=56	=56	=56	=56	=56	=56	=56	=56	=56	=56
4GGG/ 4GG	8cc/L	8d-\ 8e-	.	(>8c\L	.	(>8c\L	.	.	.	(>8cc\L	lu-	.	.
.	8b-/J	8r	.	8B-\J	.	8B-\J	.	.	.	8b-\J	.	.	.
4EEE-/ 4EE-	4dd-/	4d-\ 4g	.	4d-\)	.	4d-\)	.	.	.	4dd-\)	.	.	.
4AAA-/ 4AA-	4cc/)	4e-\ 4a-	.	4c\	.	4c\	.	.	.	4cc\	-dy;	.	.
=57	=57	=57	=57	=57	=57	=57	=57	=57	=57	=57	=57	=57	=57
*	*	*	*	*	*	*	*	*	*	*^	*	*	*
4DD-/ 4D-	(>8b-/L	8B-\ 8f	.	8B-\	.	8B-/	.	.	.	8b-/	8b-\	Dla	.	.
.	8a-/J	8r	.	8A-\	.	8A-/	.	.	.	8a-/	8a-\	o-	.	.
4GGG/ 4GG	4.b-/	8d-\ 8f	.	4.B-\	.	4.B-/	.	.	.	4.b-/	4.b-\	-świa-	.	.
.	.	8r	.	.	.	.	.	.	.	.	.	.	.	.
4CC/ 4C	.	8B-\ 8en	.	.	.	.	.	.	.	.	.	.	.	.
.	8g/	8r	.	8G\	.	8G/	.	.	.	8g/	8g\	-ty	.	.
=58	=58	=58	=58	=58	=58	=58	=58	=58	=58	=58	=58	=58	=58	=58
4FFF/ 4FF	8a-/L	8A-\ 8f	.	8A-\	.	8A-/	.	.	.	8a-/	8a-\	Swych	.	.
.	8f/J	8rc	.	8F\	.	8F/	.	.	.	8f/	8f\	pod-	.	.
4AAA-/ 4AA-	4cc/	8c\ 8f	.	4c\	.	4c\	.	.	.	4cc/	4cc\	-da-	.	.
.	.	8rc	.	.	.	.	.	.	.	.	.	.	.	.
4FF/ 4F	8b-/L	8c\ 8f	.	(>8B-\L	.	(<8B-/L	.	.	.	8b-/L	8b-\L	-nych	.	.
.	8a-/J)	8rc	.	8A-\J)	.	8A-/J)	.	.	.	8a-/J	8a-\J	.	.	.
!!LO:LB:g=original
=59	=59	=59	=59	=59	=59	=59	=59	=59	=59	=59	=59	=59	=59	=59
4EE-/ 4E-	(>8g/L	8G\ 8c	.	8G\	.	8G/	.	.	.	8g/	8g\	Zno-	.	.
.	8a-/	8rc	.	8A-\	.	8A-/	.	.	.	8a-/	8a-\	-sisz	.	.
4DD-/ 4D-	8g/	8A-\ 8d-	.	8G\	.	8G/	.	.	.	8g/	8g\	chę-	.	.
.	8f/	8rc	.	8F\	.	8F/	.	.	.	8f/	8f\	-tnie	.	.
4CC/ 4C	8a-/	8A-\ 8e-	.	8A-\	.	8A-/	.	.	.	8a-/	8a-\	wszel-	.	.
.	8g/J	8rc	.	8G\	.	8G/	.	.	.	8g/	8g\	-kie	.	.
*	*v	*v	*	*	*	*	*	*	*	*	*	*	*	*
=60	=60	=60	=60	=60	=60	=60	=60	=60	=60	=60	=60	=60	=60
4AAA-/ 4AA-	4c/ 4f	>	(>4F\	.	(<4F/	.	.	.	(<4f/	4f\	tru-	.	.
!	!	!	!	!LO:HP:b	!	!	!	!LO:HP:b	!	!	!	!	!LO:HP:a
4BBB-/ 4BB-	4A-/ 4d- 4f-X	.	4F-X\)	>	4F-X/)	.	.	>	4f-X/)	4f-\	.	.	>
4EE-/ 4E-	4G/) 4d- 4e-	]]	4E-\	]	4E-/	.	.	]	4e-/	4e-\	-dy.	.	]
=61	=61	=61	=61	=61	=61	=61	=61	=61	=61	=61	=61	=61	=61
*	*^	*	*	*	*	*	*	*	*	*	*	*	*
!	!	!	!LO:DY:rj	!	!LO:DY:b:rj	!	!	!	!LO:DY:b:rj	!	!	!	!	!LO:DY:a:rj
4AAA-/ 4AA-	(>8a-/L	8c\ 8e-	pp	8A-\	pp	8A-/	.	.	pp	8a-/	8a-\	W_Two-	.	pp
.	8g/J	8rc	.	8G\	.	8G/	.	.	.	8g/	8g\	-ich	.	.
4CC/ 4C	4.a-/	8A-\ 8e-	.	4.A-\	.	4.A-/	.	.	.	4.a-/	4.a-\	czy-	.	.
.	.	8rc	.	.	.	.	.	.	.	.	.	.	.	.
4DD-/ 4D-	.	8A-\ 8d-	.	.	.	.	.	.	.	.	.	.	.	.
.	8f/	8rc	.	8F\	.	8F/	.	.	.	8f/	8f\	-nach	.	.
=62	=62	=62	=62	=62	=62	=62	=62	=62	=62	=62	=62	=62	=62	=62
4GGG-X/ 4GG-X	8g-X/L	8B-\ 8d-	.	8G-X\	.	8G-X/	.	.	.	8g-X/	8g-\	znak	.	.
.	8fn/J	8r	.	8Fn\	.	8Fn/	.	.	.	8fn/	8fn\	do-	.	.
4BBB-/ 4BB-	4g-/	8G-X\ 8d-	.	4G-\	.	4G-/	.	.	.	4g-/	4g-\	-bro-	.	.
.	.	8r	.	.	.	.	.	.	.	.	.	.	.	.
4CC-X/ 4C-X	8e-/L	8G-\ 8c-X	.	8E-\	.	8E-/	.	.	.	8e-/	8e-\	-ci	.	.
.	8e-/J)	8r	.	8E-\	.	8E-/	.	.	.	8e-/	8e-\	I	.	.
!!LO:LB:g=original
=63	=63	=63	=63	=63	=63	=63	=63	=63	=63	=63	=63	=63	=63	=63
4FFF-X/ 4FF-X	(>8f-X/L	8A-\ 8c-X	.	(>8F-X\L	.	(<8F-X/L	.	.	.	(>8f-X/L	(<8f-\L	łask	.	.
.	8e-/J	8r	.	8E-\J)	.	8E-/J)	.	.	.	8e-/J)	8e-\J)	.	.	.
!	!	!	!	!	!LO:HP:b:t=crescendo	!	!	!	!LO:HP:b:t=crescendo	!	!	!	!	!LO:HP:t=crescendo
4AAA-/ 4AA-	8f-/L	8F-X\ 8c-	.	8F-\	<	8F-/	.	.	<	8f-/	8f-\	do-	.	<
!	!	!	!LO:HP:t=crescendo	!	!	!	!	!	!	!	!	!	!	!
.	8g-X/J	8r	<	8G-X\	.	8G-X/	.	.	.	8g-X/	8g-\	-wód	.	.
4FFF-/ 4FF-	8a-/L	8c-\ 8f-	.	8A-\	.	8A-/	.	.	.	8a-/	8a-\	nie-	.	.
.	8cc-X/J	8r	.	8A-\	.	8c-X\	.	.	.	8a-/ 8cc-X	8rc	-prze-	.	.
=64	=64	=64	=64	=64	=64	=64	=64	=64	=64	=64	=64	=64	=64	=64
4GGG-X/ 4GG-X	8ee-/L	4f-X\ 4b-	.	2G-X\	.	(>4B-\	.	.	.	(>8ee-/L	(<4f-X\	-bra-	.	.
.	8dd-/J	.	.	.	.	.	.	.	.	8dd-/J	.	.	.	.
4GG-/ 4G-X	4ff-X/)	4f-\ 4b- 4dd-	.	.	.	4d-\)	.	.	.	4ff-X/)	4b-\)	.	.	.
4GGn/ 4Gn	8ee-/L	4e-\ 4b-	.	4Gn\	.	4e-\	.	.	.	(>8ee-/L	4b-\	-ny	.	.
.	8dd-/J	.	.	.	.	.	.	.	.	8dd-/J)	.	.	.	.
*	*v	*v	*	*	*	*	*	*	*	*v	*v	*	*	*
=65	=65	=65	=65	=65	=65	=65	=65	=65	=65	=65	=65	=65
!	!	!LO:DY:rj	!	!LO:DY:b:rj	!	!	!	!LO:DY:b:rj	!	!	!	!LO:DY:b:rj
8AA-/L 8A-	8e-/L 8a- 8dd-	f	8A-\	f	8e-\	.	.	f	8a-/ 8dd-	Sła-	.	f
8AA-/J 8A-	8e-/J 8a- 8ccn	.	8A-\	.	8e-\	.	.	.	8a-/ 8ccn	-wa	.	.
4.DD-/ 4.D-	4.fn/ 4.a- 4.ffn	.	4.D-\	.	4.d-\	.	.	.	4.a-/ 4.ffn	To-	.	.
8CC/ 8C	8e-/ 8a- 8ee-	.	8C/	.	8e-\	.	.	.	8a-/ 8ee-	-bie!	.	.
=66	=66	=66	=66	=66	=66	=66	=66	=66	=66	=66	=66	=66
8FF/L 8F	8d-/L 8a- 8dd-	.	8F\	.	8A-/	.	.	.	8a-/ 8dd-	dzię-	.	.
8EE-/J 8E-	8e-/J 8a- 8cc	.	8E-\	.	8A-/	.	.	.	8a-/ 8cc	-ki	.	.
4.DD-/ 4.D-	4.f/ 4.a- 4.ff	.	4.D-\	.	4.A-/	.	.	.	4.f/ 4.ff	To-	.	.
8CC/ 8C	8e-/ 8a- 8ee-	.	8C/	.	8A-/	.	.	.	8a-/ 8ee-	-bie!	.	.
!!LO:PB:g=original
=67	=67	=67	=67	=67	=67	=67	=67	=67	=67	=67	=67	=67
*	*^	*	*	*	*	*	*	*	*	*	*	*
!	!	!	!LO:DY:rj	!	!LO:DY:b	!	!	!	!LO:DY:b	!	!	!	!LO:DY:a
2BBB-/ 2BB-	8f/L	2A-\ 2d-	mf	8BB-/	mf	8A-/	.	.	mf	8d-/ 8f	Nam	.	mf
!	!	!	!	!	!LO:HP:b	!	!	!	!LO:HP:b	!	!	!	!LO:DY:a
.	8a-/	.	.	8BB-/	>	8F/	.	.	>	8d-/ 8a-	Ce-	.	>
.	8f/	.	>	8BB-/	.	8A-/	.	.	.	8d-/ 8f	-sa-	.	.
.	8dd-/J	.	.	8BB-/	.	8A-/	.	.	.	8d-/ 8dd-	-rzu	.	.
8.EE-/L 8.E-	8.d-/L 8.g	4rcyy	.	8.E-\	.	8.B-/	.	.	.	8.d-/ 8.g	u-	.	.
16EE-/Jk 16E-	16d-/Jk 16g 16cc	.	]	16E-\	]	16G/	.	.	]	16d-/ 16cc	-ko-	.	]
*	*v	*v	*	*	*	*	*	*	*	*	*	*	*
=68	=68	=68	=68	=68	=68	=68	=68	=68	=68	=68	=68	=68
!	!	!	!	!	!	!	!	!	!LO:TX:b:i:t=Powtórzyć od początku do Tria\ni potem Coda	!	!	!
!	!	!LO:DY:rj	!	!LO:DY:b:rj	!	!	!	!LO:DY:b:rj	!	!	!	!LO:DY:a:rj
2AAA-/ 2AA-	4d-/ 4g 4b-	p	4AA-/	p	4G/	.	.	p	4d-/ 4b-	-cha-	.	p
.	4c/ 4a-	.	4AA-/	.	4A-/	.	.	.	4c/ 4a-	-ny!	.	.
4r	4r	.	4r	.	4r	.	.	.	4r	.	.	.
!!LO:LB:g=original
=69:|!	=69:|!	=69:|!	=69:|!	=69:|!	=69:|!	=69:|!	=69:|!	=69:|!	=69:|!	=69:|!	=69:|!	=69:|!
*>C	*>C	*	*>C	*	*>C	*	*	*	*>C	*	*	*
*k[b-e-a-]	*k[b-e-a-]	*	*k[b-e-a-]	*	*k[b-e-a-]	*	*	*	*k[b-e-a-]	*	*	*
*E-:	*E-:	*	*E-:	*	*E-:	*	*	*	*E-:	*	*	*
!	!LO:TX:i:t=Coda	!LO:DY:rj	!	!	!	!	!	!	!LO:TX:a:B:t=Coda	!	!	!
8.GGG\L 8.GG	8.g\L 8.bn 8.dd 8.gg	ff	4r	.	4r	.	.	.	4r	.	.	.
16G\Jk 16Bn	16d\Jk 16g 16b 16dd	.	.	.	.	.	.	.	.	.	.	.
8.G\L 8.B	8.d\L 8.g 8.b 8.dd	.	4r	.	4r	.	.	.	4r	.	.	.
16G\Jk 16B 16d	16g\Jk 16b 16dd 16gg	.	.	.	.	.	.	.	.	.	.	.
!	!	!	!	!LO:DY:b:rj	!	!	!	!LO:DY:b:rj	!	!	!	!LO:DY:a:rj
8.G\L 8.B 8.d	8.g\L 8.b 8.dd 8.gg	.	8.G\	ff	8.d\	.	.	ff	8.g/ 8.bn	Sła-	.	ff
16G\Jk 16B 16d	16b\Jk 16dd 16gg 16bbn	.	16G\	.	16d\	.	.	.	16g/ 16b	-wa	.	.
=70	=70	=70	=70	=70	=70	=70	=70	=70	=70	=70	=70	=70
8.G\L 8.Bn 8.d	8.bn\L 8.dd 8.gg 8.bbn	.	4G\	.	4Bn\	.	.	.	4g/ 4dd	To-	.	.
16G\Jk 16B 16d	16dd\Jk 16gg 16bb 16ddd	.	.	.	.	.	.	.	.	.	.	.
!LO:TX:t=P:problem:mixed beam	!	!	!	!	!	!	!	!	!	!	!	!
8.G\L 8.B 8.d	8.dd\L 8.gg 8.bb 8.ddd	.	4G\	.	4d\	.	.	.	4g/ 4bn	-bie!	.	.
16GGG/Jk 16GG	16gg\Jk 16bb 16ddd 16ggg	.	.	.	.	.	.	.	.	.	.	.
8GGG/ 8GG	8gg\ 8bb 8ddd 8ggg	.	4r	.	4r	.	.	.	4r	.	.	.
8r	8r	.	.	.	.	.	.	.	.	.	.	.
=71	=71	=71	=71	=71	=71	=71	=71	=71	=71	=71	=71	=71
8.CC\L 8.C	8.g\L 8.cc 8.een 8.gg	.	4r	.	4r	.	.	.	4r	.	.	.
16En\Jk 16G 16c	16en\Jk 16g 16cc 16ee	.	.	.	.	.	.	.	.	.	.	.
8.E\L 8.G 8.c	8.e\L 8.g 8.cc 8.ee	.	4r	.	4r	.	.	.	4r	.	.	.
16E\Jk 16G 16c	16g\Jk 16cc 16ee 16gg	.	.	.	.	.	.	.	.	.	.	.
8.E\L 8.G 8.c	8.g\L 8.cc 8.ee 8.gg	.	8.c\	.	8.en\	.	.	.	8.g/ 8.cc	Sła-	.	.
16E\Jk 16G 16c	16cc\Jk 16ee 16gg 16ccc	.	16c\	.	16e\	.	.	.	16g/ 16cc	-wa	.	.
=72	=72	=72	=72	=72	=72	=72	=72	=72	=72	=72	=72	=72
8.En\L 8.G 8.c	8.cc\L 8.een 8.gg 8.ccc	.	4C/	.	4c\	.	.	.	4g/ 4een	To-	.	.
16E\Jk 16G 16c	16ee\Jk 16gg 16ccc 16eeen	.	.	.	.	.	.	.	.	.	.	.
8.E\L 8.G 8.c	8.ee\L 8.gg 8.ccc 8.eee	.	4C/	.	4en\	.	.	.	4g/ 4cc	-bie!	.	.
16CC\Jk 16C	16gg\Jk 16ccc 16eee 16ggg	.	.	.	.	.	.	.	.	.	.	.
8CC/ 8C	8gg\ 8ccc 8eee 8ggg	.	4r	.	4r	.	.	.	4r	.	.	.
8r	8r	.	.	.	.	.	.	.	.	.	.	.
=73	=73	=73	=73	=73	=73	=73	=73	=73	=73	=73	=73	=73
8.AAA-\L 8.AA-	8.aa-\L 8.ccc 8.eee-X 8.aaa-	.	4r	.	4r	.	.	.	4r	.	.	.
16E-X\Jk 16A- 16c	16e-X\Jk 16a- 16cc	.	.	.	.	.	.	.	.	.	.	.
8.E-\L 8.A- 8.c	8.e-\L 8.a- 8.cc	.	4r	.	4r	.	.	.	4r	.	.	.
16E-\Jk 16A- 16c	16e-\Jk 16a- 16cc 16ee-X	.	.	.	.	.	.	.	.	.	.	.
8.E-\L 8.A- 8.c	8.e-\L 8.a- 8.cc 8.ee-	.	8.A-\	.	8.e-X\	.	.	.	8.a-/ 8.cc	Sła-	.	.
16E-\Jk 16A- 16c	16a-\Jk 16cc 16ee- 16aa-	.	16A-\	.	16e-\	.	.	.	16a-/ 16cc	-wa	.	.
!!LO:LB:g=original
=74	=74	=74	=74	=74	=74	=74	=74	=74	=74	=74	=74	=74
*	*	*	*	*	*	*	*	*	*^	*	*	*
8.E-\L 8.A- 8.c	8.a-\L 8.cc 8.ee- 8.aa-	.	2A-\	.	(>4c\	.	.	.	(>4ee-/	2a-\	To-	.	.
16C\Jk 16E- 16A-	16cc\Jk 16ee- 16aa- 16ccc	.	.	.	.	.	.	.	.	.	.	.	.
8.C\L 8.E- 8.A-	8.cc\L 8.ee- 8.aa- 8.ccc	.	.	.	4e-\)	.	.	.	4cc/)	.	.	.	.
16AA-\Jk 16E- 16A-	16ee-\Jk 16aa- 16ccc 16eee-	.	.	.	.	.	.	.	.	.	.	.	.
8.AA-/L 8.A-	8.ee-\L 8.aa- 8.ccc 8.eee-	.	4A-\	.	4c\	.	.	.	4ee-/	4a-\	-bie	.	.
16AAA-/Jk 16AA-	16ee-\Jk 16aa- 16ccc 16eee-	.	.	.	.	.	.	.	.	.	.	.	.
=75	=75	=75	=75	=75	=75	=75	=75	=75	=75	=75	=75	=75	=75
!LO:TX:t=P:problem:mixed beam	!	!	!	!	!	!	!	!	!	!	!	!	!
8.EEE-/L 8.EE-	8.gg\L 8.bb- 8.eee- 8.ggg	.	[>2.E-\	.	[>2.e-\	.	.	.	[>2.gg/	[>2.b-\	Sła-	.	.
16G\Jk 16B- 16e-	16g\Jk 16b- 16ee- 16gg	.	.	.	.	.	.	.	.	.	.	.	.
8.G\L 8.B- 8.e-	8.g\L 8.b- 8.ee- 8.gg	.	.	.	.	.	.	.	.	.	.	.	.
16G\Jk 16B- 16e-	16b-\Jk 16ee- 16gg 16bb-	.	.	.	.	.	.	.	.	.	.	.	.
!LO:TX:t=P:problem:mixed beam	!	!	!	!	!	!	!	!	!	!	!	!	!
8.G\L 8.B- 8.e-	8.b-\L 8.ee- 8.gg 8.bb-	.	.	.	.	.	.	.	.	.	.	.	.
16EEE-/Jk 16EE-	16ee-\Jk 16gg 16bb- 16eee-	.	.	.	.	.	.	.	.	.	.	.	.
*	*	*	*	*	*	*	*	*	*v	*v	*	*	*
=76	=76	=76	=76	=76	=76	=76	=76	=76	=76	=76	=76	=76
!LO:TX:t=P:problem:mixed beam	!	!	!	!	!	!	!	!	!	!	!	!
8.EEE-/L 8.EE-	8.ee-\L 8.gg 8.bb- 8.eee-	.	2.E-\]	.	2.e-\]	.	.	.	2.b-\] 2.gg]	.	.	.
*	*8va	*	*	*	*	*	*	*	*	*	*	*
16G\Jk 16B- 16e-	16gg\Jk 16bb- 16eee- 16ggg	.	.	.	.	.	.	.	.	.	.	.
8.G\L 8.B- 8.e-	8.gg\L 8.bb- 8.eee- 8.ggg	.	.	.	.	.	.	.	.	.	.	.
16G\Jk 16B- 16e-	16bb-\Jk 16eee- 16ggg 16bbb-	.	.	.	.	.	.	.	.	.	.	.
!LO:TX:t=P:problem:mixed beam	!	!	!	!	!	!	!	!	!	!	!	!
8.G\L 8.B- 8.e-	8.bb-\L 8.eee- 8.ggg 8.bbb-	.	.	.	.	.	.	.	.	.	.	.
16EEE-/Jk 16EE-	16eee-\Jk 16ggg 16bbb- 16eeee-	.	.	.	.	.	.	.	.	.	.	.
=77	=77	=77	=77	=77	=77	=77	=77	=77	=77	=77	=77	=77
8EEE-/ 8EE-	8eee-\ 8ggg 8bbb- 8eeee-	.	[>2.E-\	.	[>2.B-\	.	.	.	[<2.g/ [>2.ee-	-wa	.	.
*	*X8va	*	*	*	*	*	*	*	*	*	*	*
8r	8r	.	.	.	.	.	.	.	.	.	.	.
4EE-/ 4BB- 4E-	4G/ 4B- 4e-	.	.	.	.	.	.	.	.	.	.	.
4EE-/ 4BB- 4E-	4G/ 4B- 4e-	.	.	.	.	.	.	.	.	.	.	.
=78	=78	=78	=78	=78	=78	=78	=78	=78	=78	=78	=78	=78
2.EEE-;>/ 2.EE-	2.G;>/ 2.B- 2.e-	.	4E-\]	.	4B-\]	.	.	.	4g/] 4ee-]	.	.	.
.	.	.	4r	.	4r	.	.	.	4r	.	.	.
.	.	.	4r;>	.	4r;>	.	.	.	4r;>	.	.	.
!!LO:PB:g=original
==	==	==	==	==	==	==	==	==	==	==	==	==
*-	*-	*-	*-	*-	*-	*-	*-	*-	*-	*-	*-	*-
!!!system-decoration: {{(s1,s2,s3)}{(s4,s5)}}
!!!RDF**kern: < = below
!!!RDF**kern: > = above
!!!AIN: 1 empty 1 forte 1 soprn 1 tenor
!!!ENC: Marta Chmielewska
!!!END: 2021-06-02
!!!ENC: Mateusz Solarz
!!!END: 2021-05-10
